img/svg/clock-small.svg

<?xml version="1.0" encoding="utf-8"?><!DOCTYPE svg PUBLIC "-//W3C//DTD SVG 1.1//EN" "http://www.w3.org/Graphics/SVG/1.1/DTD/svg11.dtd"><svg version="1.1" baseProfile="full" xmlns="http://www.w3.org/2000/svg" xmlns:xlink="http://www.w3.org/1999/xlink" xmlns:ev="http://www.w3.org/2001/xml-events"   height="14px"   width="13px" ><path opacity="0.2" fill="rgb( 0, 0, 0 )" d="M11.538,12.396 C11.538,12.396 12.389,12.396 12.389,12.396 C12.727,12.396 13,12.659 13,12.983 C13,12.983 13,13.413 13,13.413 C13,13.737 12.727,14 12.389,14 C12.389,14 0.61099999999999,14 0.61099999999999,14 C0.27300000000002,14 0,13.737 0,13.413 C0,13.413 0,12.983 0,12.983 C0,12.659 0.27300000000002,12.396 0.61099999999999,12.396 C0.61099999999999,12.396 1.46300000000002,12.396 1.46300000000002,12.396 C1.48599999999999,10.146 2.399,8.096 3.82999999999998,6.93200000000002 C2.43200000000002,5.79399999999998 1.52800000000002,3.80500000000001 1.46300000000002,1.62700000000001 C1.46300000000002,1.62700000000001 0.61099999999999,1.62700000000001 0.61099999999999,1.62700000000001 C0.27300000000002,1.62700000000001 0,1.36500000000001 0,1.04000000000002 C0,1.04000000000002 0,0.58699999999999 0,0.58699999999999 C0,0.26299999999998 0.27300000000002,0 0.61099999999999,0 C0.61099999999999,0 12.389,0 12.389,0 C12.727,0 13,0.26299999999998 13,0.58699999999999 C13,0.58699999999999 13,1.04000000000002 13,1.04000000000002 C13,1.36500000000001 12.727,1.62700000000001 12.389,1.62700000000001 C12.389,1.62700000000001 11.536,1.62700000000001 11.536,1.62700000000001 C11.472,3.80500000000001 10.568,5.79500000000002 9.17099999999999,6.93200000000002 C10.601,8.09699999999998 11.514,10.147 11.538,12.396 ZM7.56599999999997,6.42599999999999 C7.56599999999997,6.42599999999999 7.79500000000002,6.31999999999999 7.79500000000002,6.31999999999999 C9.30599999999998,5.61000000000001 10.341,3.733 10.416,1.62700000000001 C10.416,1.62700000000001 2.584,1.62700000000001 2.584,1.62700000000001 C2.66000000000003,3.733 3.69400000000002,5.61000000000001 5.20600000000002,6.32100000000003 C5.20600000000002,6.32100000000003 5.43400000000003,6.42500000000001 5.43400000000003,6.42500000000001 C5.63200000000001,6.51900000000001 5.75799999999998,6.71300000000002 5.75799999999998,6.92500000000001 C5.75799999999998,7.137 5.63200000000001,7.33199999999999 5.43400000000003,7.42500000000001 C5.43400000000003,7.42500000000001 5.20600000000002,7.53500000000003 5.20600000000002,7.53500000000003 C3.65600000000001,8.26400000000001 2.61000000000001,10.194 2.58300000000003,12.396 C2.58300000000003,12.396 10.416,12.396 10.416,12.396 C10.389,10.194 9.34399999999999,8.26299999999998 7.79399999999998,7.53500000000003 C7.79399999999998,7.53500000000003 7.56599999999997,7.42200000000003 7.56599999999997,7.42200000000003 C7.36799999999999,7.32900000000001 7.24299999999999,7.13600000000002 7.24400000000003,6.92399999999998 C7.24400000000003,6.71199999999999 7.36799999999999,6.51900000000001 7.56599999999997,6.42599999999999 ZM9.315,11.845 C9.315,11.845 4.01400000000001,11.845 4.01400000000001,11.845 C4.19600000000003,10.601 5.30700000000002,9.61900000000003 6.66500000000002,9.61900000000003 C8.02300000000002,9.61900000000003 9.13400000000001,10.601 9.315,11.845 ZM3.255,3.49900000000002 C3.255,3.49900000000002 9.74799999999999,3.49900000000002 9.74799999999999,3.49900000000002 C9.452,4.392 7.39499999999998,6.19200000000001 6.50099999999998,6.125 C5.35700000000003,6.03899999999999 3.68000000000001,4.69999999999999 3.255,3.49900000000002 Z "/></svg>

<svg baseProfile="full" xmlns="http://www.w3.org/2000/svg" height="14" width="13"><path opacity=".2" fill="rgb( 0, 0, 0 )" d="M11.538 12.396h.851c.338 0 .611.263.611.587v.43c0 .324-.273.587-.611.587h-11.778c-.338 0-.611-.263-.611-.587v-.43c0-.324.273-.587.611-.587h.852c.023-2.25.936-4.3 2.367-5.464-1.398-1.138-2.302-3.127-2.367-5.305h-.852c-.338 0-.611-.262-.611-.587v-.453c0-.324.273-.587.611-.587h11.778c.338 0 .611.263.611.587v.453c0 .325-.273.587-.611.587h-.853c-.064 2.178-.968 4.168-2.365 5.305 1.43 1.165 2.343 3.215 2.367 5.464zm-3.972-5.97l.229-.106c1.511-.71 2.546-2.587 2.621-4.693h-7.832c.076 2.106 1.11 3.983 2.622 4.694l.228.104c.198.094.324.288.324.5 0 .212-.126.407-.324.5l-.228.11c-1.55.729-2.596 2.659-2.623 4.861h7.833c-.027-2.202-1.072-4.133-2.622-4.861l-.228-.113c-.198-.093-.323-.286-.322-.498 0-.212.124-.405.322-.498zm1.749 5.419h-5.301c.182-1.244 1.293-2.226 2.651-2.226 1.358 0 2.469.982 2.65 2.226zm-6.06-8.346h6.493c-.296.893-2.353 2.693-3.247 2.626-1.144-.086-2.821-1.425-3.246-2.626z"/></svg>
